betas/assets/img/icons/skills/bootstrap-fill-svgrepo-com.svg

<svg fill="none" height="800" viewBox="0 0 24 24" width="800" xmlns="http://www.w3.org/2000/svg"><path clip-rule="evenodd" d="m4.98488 2c-1.36942 0-2.38271 1.19858-2.33735 2.49844.04352 1.24881-.01302 2.86617-.42021 4.18515-.4084 1.32281-1.09912 2.16081-2.22732 2.26841v1.2146c1.1282.1076 1.81892.9456 2.22732 2.2685.40719 1.3189.46373 2.9363.42021 4.1851-.04536 1.2997.96793 2.4984 2.33755 2.4984h14.03182c1.3695 0 2.3826-1.1985 2.3372-2.4984-.0435-1.2488.013-2.8662.4202-4.1851.4086-1.3229 1.0975-2.1609 2.2257-2.2685v-1.2146c-1.1282-.1076-1.8171-.9456-2.2257-2.26841-.4072-1.31878-.4637-2.93634-.4202-4.18515.0454-1.29966-.9677-2.49844-2.3372-2.49844h-14.03222zm11.28632 11.7687c0 1.7899-1.3351 2.8754-3.5506 2.8754h-3.77145c-.10788 0-.21135-.0429-.28763-.1192-.07629-.0763-.11915-.1797-.11915-.2876v-9.35594c0-.10789.04286-.21135.11915-.28764.07628-.07629.17975-.11914.28763-.11914h3.74995c1.8473 0 3.0597 1.00067 3.0597 2.53708 0 1.07834-.8155 2.04384-1.8547 2.21284v.0564c1.4146.1552 2.3671 1.1347 2.3671 2.4878zm-3.9618-6.00463h-2.1505v3.03743h1.8112c1.4001 0 2.1722-.5638 2.1722-1.5716 0-.94434-.6639-1.46583-1.8329-1.46583zm-2.1505 4.24273v3.3474h2.2296c1.4577 0 2.2299-.585 2.2299-1.6843 0-1.0995-.7938-1.6633-2.3237-1.6633h-2.1358z" fill="#000" fill-rule="evenodd"/></svg>

<?xml version="1.0" encoding="utf-8"?><!-- Uploaded to: SVG Repo, www.svgrepo.com, Generator: SVG Repo Mixer Tools -->
<svg width="800px" height="800px" viewBox="0 0 24 24" fill="none" xmlns="http://www.w3.org/2000/svg">
<path fill-rule="evenodd" clip-rule="evenodd" d="M4.98488 2C3.61546 2 2.60217 3.19858 2.64753 4.49844C2.69105 5.74725 2.63451 7.36461 2.22732 8.68359C1.81892 10.0064 1.1282 10.8444 0 10.952V12.1666C1.1282 12.2742 1.81892 13.1122 2.22732 14.4351C2.63451 15.754 2.69105 17.3714 2.64753 18.6202C2.60217 19.9199 3.61546 21.1186 4.98508 21.1186H19.0169C20.3864 21.1186 21.3995 19.9201 21.3541 18.6202C21.3106 17.3714 21.3671 15.754 21.7743 14.4351C22.1829 13.1122 22.8718 12.2742 24 12.1666V10.952C22.8718 10.8444 22.1829 10.0064 21.7743 8.68359C21.3671 7.36481 21.3106 5.74725 21.3541 4.49844C21.3995 3.19878 20.3864 2 19.0169 2H4.98468H4.98488ZM16.2712 13.7687C16.2712 15.5586 14.9361 16.6441 12.7206 16.6441H8.94915C8.84127 16.6441 8.7378 16.6012 8.66152 16.5249C8.58523 16.4486 8.54237 16.3452 8.54237 16.2373V6.88136C8.54237 6.77347 8.58523 6.67001 8.66152 6.59372C8.7378 6.51743 8.84127 6.47458 8.94915 6.47458H12.6991C14.5464 6.47458 15.7588 7.47525 15.7588 9.01166C15.7588 10.09 14.9433 11.0555 13.9041 11.2245V11.2809C15.3187 11.4361 16.2712 12.4156 16.2712 13.7687ZM12.3094 7.76407H10.1589V10.8015H11.9701C13.3702 10.8015 14.1423 10.2377 14.1423 9.2299C14.1423 8.28556 13.4784 7.76407 12.3094 7.76407ZM10.1589 12.0068V15.3542H12.3885C13.8462 15.3542 14.6184 14.7692 14.6184 13.6699C14.6184 12.5704 13.8246 12.0066 12.2947 12.0066H10.1589V12.0068Z" fill="#000000"/>
</svg>
